src/assets/svg/icons/fa/nuevos/classic/duotone/store-lock classic duotone.svg

<svg xmlns="http://www.w3.org/2000/svg" viewBox="0 0 640 512"><defs><style>.fa-secondary{opacity:.4}</style></defs><path class="fa-primary" d="M448 320V272C448 227.8 483.8 192 528 192C572.2 192 608 227.8 608 272V320C625.7 320 640 334.3 640 352V480C640 497.7 625.7 512 608 512H448C430.3 512 416 497.7 416 480V352C416 334.3 430.3 320 448 320zM496 320H560V272C560 254.3 545.7 240 528 240C510.3 240 496 254.3 496 272V320z"/><path class="fa-secondary" d="M490.3 13.13L547.6 103.8C559.5 122.6 562.4 144.3 558.1 164.1C548.5 161.4 538.4 160 528 160C489.3 160 455.2 179.6 435.1 209.5C428.9 205.3 423.2 200.5 418.3 195C402.4 212.6 379.2 224 353.1 224C327 224 303.8 212.6 287.9 195C272 212.6 248.9 224 222.7 224C196.7 224 173.5 212.6 157.6 195C141.7 212.6 118.5 224 92.36 224C88.3 224 84.21 223.7 80.24 223.2C24.92 215.8-1.256 150.6 28.33 103.8L85.66 13.13C90.76 4.979 99.87 0 109.6 0H466.4C476.1 0 485.2 4.978 490.3 13.13L490.3 13.13zM384 480C384 491.7 387.1 502.6 392.6 512H128C92.65 512 64 483.3 64 448V252.6C67.87 253.6 71.86 254.4 75.97 254.9L76.09 254.9C81.35 255.6 86.83 256 92.36 256C104.8 256 116.8 254.1 128 250.6V384H384V480z"/></svg>

<svg xmlns="http://www.w3.org/2000/svg" viewBox="0 0 640 512"><!--! Font Awesome Pro 6.4.0 by @fontawesome - https://fontawesome.com License - https://fontawesome.com/license (Commercial License) Copyright 2023 Fonticons, Inc. --><defs><style>.fa-secondary{opacity:.4}</style></defs><path class="fa-primary" d="M496 272v48h64V272c0-17.7-14.3-32-32-32s-32 14.3-32 32zm-48 48V272c0-44.2 35.8-80 80-80s80 35.8 80 80v48c17.7 0 32 14.3 32 32V480c0 17.7-14.3 32-32 32H448c-17.7 0-32-14.3-32-32V352c0-17.7 14.3-32 32-32z"/><path class="fa-secondary" d="M490.3 13.1l57.3 90.7c11.9 18.8 14.8 40.5 10.4 60.3c-9.6-2.7-19.7-4.1-30.1-4.1c-38.7 0-72.8 19.6-92.9 49.5c-6.2-4.1-11.9-9-16.8-14.4c-15.9 17.6-39 29-65.2 29c-26.1 0-49.3-11.4-65.2-29c-15.9 17.6-39 29-65.2 29c-26.1 0-49.3-11.4-65.2-29c-15.9 17.6-39.1 29-65.2 29c-4.1 0-8.2-.3-12.1-.8c-55.3-7.4-81.5-72.6-51.9-119.4L85.7 13.1C90.8 5 99.9 0 109.6 0H466.4c9.7 0 18.8 5 23.9 13.1zM384 384v96c0 11.7 3.1 22.6 8.6 32H128c-35.3 0-64-28.7-64-64V384 252.6c3.9 1 7.9 1.7 12 2.3l.1 0c5.3 .7 10.7 1.1 16.3 1.1c12.5 0 24.4-1.9 35.6-5.4V384H384z"/></svg>
